X: 199
T: Gechang meili de jiaxiang
L: 1/16
K: A
z4e3 c [I:setbarnb 1]| 
e8- | 
e4e a e c | 
A4c4 | 
e8 | 
a2 z2 e3 c | 
e8- | 
e4e a e cA4 | 
[M:2/4]=c6A F | 
E2 z2 e2 c2 | 
e8- | 
e4e a e' c | 
A6F2 | 
E8 | 
e c e2 e a e c A2 | 
e c e2 e a e' c A2 | 
e c e2 e a e c A4<=c4A F | 
E4z4 |]

@@@ Tune index: 8867
